public/images/dynamic/warning.svg

<svg viewBox="0 0 117 101" fill="none" xmlns="http://www.w3.org/2000/svg">
<path d="M1.84195 99.9747L58.7109 1.4747L115.58 99.9747H1.84195Z" stroke="#78B0B5"/>
<path d="M63.1152 32.4971L63.1439 31.97H62.6159H54.7202H54.1922L54.2209 32.4971L56.4094 72.7485L56.4351 73.2213H56.9087H60.4274H60.901L60.9267 72.7485L63.1152 32.4971ZM62.7018 88.97H63.2018V88.47V80.4884V79.9884H62.7018H54.7202H54.2202V80.4884V88.47V88.97H54.7202H62.7018Z" stroke="#78B0B5"/>
</svg>

<svg xmlns="http://www.w3.org/2000/svg" fill="none" viewBox="0 0 117 101"><path stroke="#78B0B5" d="m1.842 99.975 56.869-98.5 56.869 98.5z"/><path stroke="#78B0B5" d="m63.115 32.497.029-.527h-8.952l.029.527 2.188 40.252.026.472h4.466l.026-.472zm-.413 56.473h.5v-8.982H54.22v8.982z"/></svg>
